!!!COM: Schiørring, Niels
!!!CDT: 1743-1798
!!!OPR@@DA: Choral-Bog
!!!ONM: 26
!!!OTL@@DA: Guds Søn er kommen af Himmelen ned
**kern	**fb	**kern	**kern	**kern	**kern	**kern	**kern	**kern
*part6	*part6	*part6	*part5	*part5	*part4	*part3	*part2	*part1
*staff8	*	*staff7	*staff6	*staff5	*staff4	*staff3	*staff2	*staff1
*clefF4	*	*clefC1	*clefF4	*clefC1	*clefF4	*clefC4	*clefC3	*clefC1
*k[f#c#]	*	*k[f#c#]	*k[f#c#]	*k[f#c#]	*k[f#c#]	*k[f#c#]	*k[f#c#]	*k[f#c#]
*D:	*	*D:	*D:	*D:	*D:	*D:	*D:	*D:
*M4/4	*	*M4/4	*M4/4	*M4/4	*M4/4	*M4/4	*M4/4	*M4/4
*met(c)	*	*met(c)	*met(c)	*met(c)	*met(c)	*met(c)	*met(c)	*met(c)
*MM180	*	*MM180	*MM180	*MM180	*MM180	*MM180	*MM180	*MM180
*	*	*	*^	*^	*	*	*	*
*	*	*	*	*	*	*^	*	*	*	*
2D	.	2a	2A	2D	2a	2d	2f#/	2D	2d	2f#	2a
=1	=1	=1	=1	=1	=1	=1	=1	=1	=1	=1	=1
2C#	6	2a	1A	2C#	2a	2e	2e/	2C#	2e	2e	2a
2AA	7	2a	.	2AA	2a	2c#	2g/	2AA	2c#	2g	2a
*	*	*	*	*	*	*v	*v	*	*	*	*
=2	=2	=2	=2	=2	=2	=2	=2	=2	=2	=2
2D	.	2a	1ryy	2D	2d	2f#	2D	2d	2f#	2a
*	*	*	*	*	*	*	*^	*	*	*
2FF#	nr5	2ccn	.	2FF#	2d	[2a	2F#	2FF#	2d	[2a	2ccn
=3	=3	=3	=3	=3	=3	=3	=3	=3	=3	=3	=3
2GG	9	2b	2ryy@	2G	2d	4a]	2G	2GG	2d	(4a]	2b
*	*	*	*	*	*v	*v	*	*	*	*	*
*	*	*	*	*	*	*v	*v	*	*	*
2D	4	2a	4d	2D	2a	2D	(4d	.	2a
=4	=4	=4	=4	=4	=4	=4	=4	=4	=4
*	*	*	*	*	*^	*	*	*	*
2G	3	2g	2B	2G	2g	2d	2G	2B	2g	2g
2C#	6	2a	2A	2C#Xi	2a	2e	2C#	2A	2e	2a
=5	=5	=5	=5	=5	=5	=5	=5	=5	=5	=5
2D	.	2f#	2A	2D	2f#	2d	2D	2A	2d	2f#
4F#	6	2d	2A	4F#	2d	2d	(4F#	2A	2d	2d
4E	.	.	.	4E	.	.	4E)	.	.	.
=6	=6	=6	=6	=6	=6	=6	=6	=6	=6	=6
2D	.	2f#	2A	2D	2f#	1d	2D	2A	2d	2f#
2BB	6	2g#X	2B	2BB	2g#X	.	2BB	2B	2d	2g#X
=7	=7	=7	=7	=7	=7	=7	=7	=7	=7	=7
4C#	6	(2a	2A	4C#	2a	1e	(4C#	(2A	(2e	(2a
4AA	.	.	.	4AA	.	.	4AA	.	.	.
2E	#	2b)	4G#X	2E	2b	.	2E)	2G#X)	2d)	2b)
.	.	.	4d	.	.	.	.	.	.	.
=	=	=	=	=	=	=	=	=	=	=
2AA	.	2a	2ryy	2AA	2c#	2e	2AA	2A	2c#	2a
=8:|!	=8:|!	=8:|!	=8:|!	=8:|!	=8:|!	=8:|!	=8:|!	=8:|!	=8:|!	=8:|!
2F#	.	2a	2c#	2F#	2a	2f#	2F#	2c#	2f#	2a
=9	=9	=9	=9	=9	=9	=9	=9	=9	=9	=9
2BB	5	2dd	2B	2BB	2dd	4f#	2BB	2B	(4f#	2dd
4C#	6	2cc#	4ryy@	4C#	2e	2a	(4C#	2e	2a	2cc#
4D	.	.	4ryy@	4D	.	.	4D)	.	.	.
=10	=10	=10	=10	=10	=10	=10	=10	=10	=10	=10
2E	#	2b	1ryy	2E	2e	2g#X	2E	2e	2g#X	2b
2A	.	2cc#	.	2A	2e	2a	2A	2e	2a	2cc#
=11	=11	=11	=11	=11	=11	=11	=11	=11	=11	=11
2D	.	2dd	2ryy@	2D	2f#	2a	2D	2f#	2a	2dd
2E	#	2b	4e	2E	2b	2g#X	2E	(4e	2g#X	2b
.	.	.	4d	.	.	.	.	4d)	.	.
=12	=12	=12	=12	=12	=12	=12	=12	=12	=12	=12
2AA	.	2a	2ryy@	2AA	2c#	2e	2AA	2c#	2a	2a
2D	.	2a	2A	2D	2a	2f#	2D	2A	2f#	2a
=13	=13	=13	=13	=13	=13	=13	=13	=13	=13	=13
2BB	.	2dd	2B	2BB	2dd	2f#	2BB	2B	2f#	2dd
2F#	6	2a	2d	2F#	2a	2f#	2F#	2A	2d	2a
=14	=14	=14	=14	=14	=14	=14	=14	=14	=14	=14
2G	.	2b	2G	2G	2b	2d	2G	2G	2d	2b
2D	.	2f#	2A	2D	2f#	2d	2D	2A	2d	2f#
=15	=15	=15	=15	=15	=15	=15	=15	=15	=15	=15
2C#	6	2a	1A	2C#	2a	2e	2C#	2A	2e	2a
2AA	7	2g	.	2AA	2g	2c#	2AA	2c#	2e	2g
=16	=16	=16	=16	=16	=16	=16	=16	=16	=16	=16
2BB	.	2f#	2F#	2BB	2f#	2d	2BB	2d	2d	2f#
2F#	6	2d	2A	2F#	2d	2d	2F#	2A	2d	2d
=17	=17	=17	=17	=17	=17	=17	=17	=17	=17	=17
2E	6	2e	2G	2E	2e	2c#	2E	2G	2c#	2e
2C#	5	2g	2A	2C#	2g	2e	2C#	2A	2e	2g
=18	=18	=18	=18	=18	=18	=18	=18	=18	=18	=18
2D	.	2f#	2A	2D	2f#	2d	2D	2A	2d	2f#
2GG	6	2e	2G	2GG	2e	2B	2GG	2G	2B	2e
=19	=19	=19	=19	=19	=19	=19	=19	=19	=19	=19
1AA	6 4	(2d	2F#	1AA	2d	2A	1AA	(2F#	(2A	(2d
.	5 3	2e)	4A	.	2e	2c#	.	4A	2c#)	2e)
.	.	.	4G	.	.	.	.	4G)	.	.
=20	=20	=20	=20	=20	=20	=20	=20	=20	=20	=20
2D	.	2d	2F#	2D	2d	2A	2D	2F#	2d	2d
*	*	*	*v	*v	*	*	*	*	*	*
*	*	*	*	*v	*v	*	*	*	*
==	==	==	==	==	==	==	==	==
*-	*-	*-	*-	*-	*-	*-	*-	*-
!!!system-decoration: {(s1,s2,s3,s4)}{(s5,s6)}{(s7,s8)}
!!!RDF**kern: i = editorial accidental
!!!RDF**kern: > = above
!!!RDF**kern: < = below
!!!AGN: chorale
!!!EED: Derek Remeš
!!!EED2: Victor Phan
!!!END: 2023/11/28
!!!ENC: Wolfgang Drescher
!!!EEV: 2023/11/29
!!!title: @{ONM}. @{OTL}